src/assets/video.svg

<svg width="32" height="32" xmlns="http://www.w3.org/2000/svg" xml:space="preserve" style="fill-rule:evenodd;clip-rule:evenodd;stroke-linejoin:round;stroke-miterlimit:2"><path d="m4 4 2 4h3L7 4h2l2 4h3l-2-4h2l2 4h3l-2-4h3c.55 0 1.021.196 1.413.587.391.392.587.863.587 1.413v12a1.93 1.93 0 0 1-.587 1.413A1.93 1.93 0 0 1 20 20H4c-.55 0-1.021-.196-1.412-.587A1.927 1.927 0 0 1 2 18V6c0-.55.196-1.021.588-1.413A1.926 1.926 0 0 1 4 4Z" style="fill-rule:nonzero" transform="translate(-.804 -.607) scale(1.40177)"/></svg>

<?xml version="1.0" encoding="UTF-8" standalone="no"?>
<svg width="32" height="32" viewBox="0 0 32 32" version="1.1" xmlns="http://www.w3.org/2000/svg" xmlns:xlink="http://www.w3.org/1999/xlink" xml:space="preserve" style="fill-rule:evenodd;clip-rule:evenodd;stroke-linejoin:round;stroke-miterlimit:2;">
    <g transform="matrix(1.40177,0,0,1.40177,-0.803545,-0.607089)">
        <path d="M4,4L6,8L9,8L7,4L9,4L11,8L14,8L12,4L14,4L16,8L19,8L17,4L20,4C20.55,4 21.021,4.196 21.413,4.587C21.804,4.979 22,5.45 22,6L22,18C22,18.55 21.804,19.021 21.413,19.413C21.021,19.804 20.55,20 20,20L4,20C3.45,20 2.979,19.804 2.588,19.413C2.196,19.021 2,18.55 2,18L2,6C2,5.45 2.196,4.979 2.588,4.587C2.979,4.196 3.45,4 4,4Z" style="fill-rule:nonzero;"/>
    </g>
</svg>
